X: 10
T: Piper's Despair, The
Z: Yoann
S: https://thesession.org/tunes/336#setting52096
R: reel
M: 4/4
L: 1/8
K: Edor
|:EFGA BAFA|B2AB dBAF|D2FD ADFA|BABc dBAF|
EFGA BAFA|B2AB dBAF|D2FA dfaf|1gfed Bee2:|2gfed BcdB||
|:e2ge bege|efga bege|df~f2 af~f2|df~f2 afdf|
e2ge bege|efga bege|df~f2 dfaf|1gfed BcdB:|2gfed Bee2||

%-------------------- TUNE SEPARATOR --------------------%

